**kern	**kern	**dynam
*part1	*part1	*part1
*staff2	*staff1	*
*I"Piano	*	*
*clefF4	*clefG2	*
*k[b-]	*k[b-]	*
=1	=1	=1
4EE	[2d 2b-X [2dd	.
4BB-X	.	.
4E	4d] 4g#X 4dd]	[ >
4G	4d 4b-X	.
=	=	=
*	*^	*
4F	4d 4a	2ryy	] <
4BB-	4G 4d	.	.
4GG	8e-XL	4B-	[ >
.	8gJ	.	.
4AA	4A 4c#X 4f	4raayy	.
*	*v	*v	*
=	=	=
4DD	2F 2A 2d	.
4AA	.	.
4D	4r	]
4E	4G 4A	p
=:|!	=:|!	=:|!
*k[f#c#]	*k[f#c#]	*
8F#L	8AL 8d	.
8GJ	8BJ	.
8F#L	8c#L 8e	.
8EJ	8AJ	.
8DL	8dL 8f#	.
8C#J	8eJ	.
8BBL	8dL 8a	.
8AAJ	8c#J	.
=	=	=
8BBBL	8aL 8cc#	.
8BBJ	8d#XJ	.
8C#L	8aL 8ff#	.
8DJ	8f#J 8a	.
8EEL	8g#XL 8b	.
8EJ	8BJ	.
8FF#L	8aL 8dd	.
8F#J	8d#J	.
=	=	=
8CC#L	8eL 8a	.
8C#J	8AJ	.
8DDL	8dL 8f#	.
8DJ	8F#J	.
8BBBL	8f#L 8dd	.
8BBJ	8dJ	.
8EEL	8g#XL 8ee	.
8EJ	8eJ	.
=	=	=
8AAAL	8aL 8ee	.
8C#J 8A	8eJ	.
8AAL	8c#L	.
8BBJ	8dJ	.
8C#L	4e	.
8EJ	.	.
8AL	8c#L	.
8G#XJ	8BJ	.
=	=	=
*-	*-	*-
!!!system-decoration: {(s1,s2)}
